!!!OTL: Es war einmal ein Zimmergesell (Band 1), S. 127
!!!id: P0815
**kern
*clefG2
*k[b-]
*F:
{8cc
=1
4a
8b-
4g
8a
=2
8f
8f
8g
4a}
=3
{8f
=4
8g
8a
8b-
8cc
8b-
8cc
=5
[2g
8g]}
=6
{8g
=7
8b-
8b-
8b-
8b-
8cc
8dd
=8
8g
8a
8b-
4cc}
=9
{8f
=10
8b-
8a
8g
8b-
8a
8g
=11
[2f
8f]}
==
*-
!!!minrhy: 8
!!!meters: 6/8 ]  ZZ[4
!!!cut: Es war einmal ein Zimmergesell (Band 1), S. 127
!!!reg: Lothringen
!!!trd: PINCK, Louis: Verklingende Weisen, Bd 1, Metz 1928
!!!rhy1: X  X_XX_X  XXXX_
!!!rhy2: X  XXXXXX  X__^
!!!key: P0815  08  F 6/8 ]  ZZ[4
!!!mod: SECHSTONSKALA DUR ?]  AMBITUS[6
!!!kad: 3251
!!!akz: 3213_2522_4425_4411_
!!!fot: 'a__b__c__bs"
!!!for: 'a__b__bw_b__
!!!fok: 'Vd_^a_/__^__
!! PHRAS[AUFTAKTIG]
!!!fkt: Beischlaf, Standesunterschied, Verleumdung
!! LOTH VKL
!! PR[43] 2K[0] 2G[2] 3K[5] 3G[0] 4A[5] 4Ü[0] 5A[5] 6K[0] 6G[0]
!! 7K[0] 7G[0] 8A[2] MEHR[0] SI[19] ABS[42] SR[2] SP[17]
!! ST[16] 2k[10] 2g[24] 3k[2] 3g[0] 4d[0] 4ü[0] 5d[0] 6k[0] 6g[0]
!! 7k[0] 7g[0] 8d[2] mehr[0] si[38] dm[-19] sr[33] sp[5]
!! 1F[60] 2F[30] 3F[0] 4F[0] LF[0] 2P[9] 3P[0] 4P[0] TRI[0] DF[3] AB[43]
!! TF[0] U3K[0] U3[0] U4[0] U4Ü[0] U5[14] U6K[0] U6[2] U7K[0] U7[5]
!! N1[23] N2K[0] N2[19] N3K[0] N3[7] N4[7] N4Ü[0] N5[21] N6K[0] N6[2]
!!!n7k: 0] N7[0] O1[0] O2K[0] O2[0] O3K[0] O3[0] HÖ[0
